X:1
T:Symphony No.1 in E Flat Major
T:Symphony No.1 in E Flat Major
T:Third Movement
T:Camille Saint-Saëns
T:Arranged for 2 pianos by the composer
C:Camille Saint-Saëns
Z:Arranged for 2 pianos by the composer
%%score { ( 1 4 ) | ( 2 3 ) } { ( 5 8 ) | ( 6 7 ) }
L:1/8
Q:1/4=66
M:9/8
K:E
V:1 treble nm="Piano I" snm="Pno. I"
V:4 treble 
V:2 treble 
V:3 treble 
V:5 bass nm="Piano II" snm="Pno. II"
V:8 bass 
V:6 bass 
V:7 bass 
V:1
"^Adagio" z9 | z9 | z9 | z9 | z9 | z9 | z9 | z9 | z9 | z9 | z2 z z2 z B3- | B2 c B3 ^E3 | %12
 F3- FGA AGF | B>Bd/c/ B3 ^EBG | G3 F2 z GAB |!pp!!<(! B2- B/c/ c3 def!<)! | %16
!mf! g2"_cresc." !>!b- bag gfe |!<(! edc cBA AGF | FE=C!<)! =C3!mp!!>(! B,3- | %19
 B,EF!>)!!p! F3 =G3- | G3 ^G3- G2 B | B3 A2 z z2 z |!p! z9 |[Q:3/8=48] z9 | z9 | z9 | E6- E3 | %27
 z2 z z2 z e3 | d3 e3 ^e3 |"_cresc." f6 ^^f3 | g3 ^a3 b3 | c'6 [dd']2 [ee'] | %32
!f! [gg']3 [ff']3 [ee']2 [dd'] | [cc']3 [Bb]3 [^A^a]2 [Bb] | [dd']3 [cc']3"_dim." [Bb]2 [^A^a] | %35
 [^A^a]3 [Gg]2 z!p! z2 z | z2 z!pp! .b3 .b3 | c'2 ^b!p! f'3 z2 z | z2 z!pp! d'2 c' e'3 | %39
!p! ^a2 g b6- | b3 f3 f3 | f3- f z z z2 z | %42
!pp!!8va(! .[b'd''].[^a'c''].[g'b'] .[f'a'].[e'g'].[d'f'] .[c'e'].[bd'].[=ac'] | %43
 .[d'f'].[bd'].[fb]!8va)! z2 z z2 z | .[c'e'].[bd'].[^ac'] .[gb].[fa].[eg] z2 z | z9 | %46
!8va(! .[e''g''].[d''f''].[c''e''] .[b'd''].[^a'c''].[g'b'] .[f'a'].[e'g'].[d'f'] | %47
 .[c'e'].[bd'].[=ac'] .[gb].[fa].[eg] .[df].[ce].[Bd]!8va)! | %48
!arpeggio!.[xgc'e'g'].[d'f'].[c'e'] .[bd'].[^ac'].[gb] .[fa].[eg].[df] | %49
 .[ce].[Bd].[^Ac] .[gb].[f^a].[eg] .[df].[^^c^e].[^c=e] | [Bd] z z!p! F3- F2 ^^F | ^^F3 G6 | %52
"_cresc." E3 G3- G2 A | A3 ^A6 | f3 ^a3- a2- a/b/ | b3 ^b6 | g3 c'3- c'2- c'/d'/ | %57
 [dd']3 [ee']3 [^A^a]2 [ff'] |!f!!8va(! [ff']6- [ff']3 | %59
 f'[gg'][^a^a'] [bb'][aa'][gg'] f'e'd'!8va)! | c'b^a gfe dc^B | ^B3!>(! c3 cde!>)! |!p! f3 [ff']6 | %63
 [ff']3 [ee']3 [dd']3 |"_dim." c'3 b3 ^a3 | =a3 g3 =g3 |!pp! [^Aef]6 [Af]3 | f3 g3 ^a3 | %68
 b2 z z2 z z ff | z fB z2 z z cc | z cF z2 z z2 z | z9 |[Q:1/4=66] z9 | z2 z z2 z c3[Q:1/4=60] | %74
[Q:1/4=54] B3 c3 ^^c3 | d6 d3 |!pppp![Q:1/4=36] d3[Q:1/4=72] [Ee]3 [^E^e]3 | f6 f3 | %78
 f3"_cresc." ^^f3 g3 | [Aa]3 [^A^a]3 [Bb]3 |!f!!>(! [=c=c']6- [cc']3!>)! | z9 | z9 | %83
!p! .d!>(!.e.f .g.a.^a .b.c'.d'!>)! | %84
!pp! .e' z/!pp! G/B/e/ B/e/g/!8va(!b/e'/g'/[Q:1/4=66] b'!8va)! z z | %85
 z z/ A/c/e/!8va(! f/a/c'/e'/f'/a'/ b'/g'/e'/b/g/e/!8va)! | %86
 z z/ A/c/e/ f/a/c'/e'/f'/a'/!8va(! e''/c''/a'/e'/c'/a/!8va)! | %87
 b'/g'/e'/b/g/b/ z2 z z/ g/b/e'/g'/b'/ | c''/^a'/f'/e'/c'/^a/ f/e/c/^A/F/E/ z/ B/e/g/b/e'/ | %89
 z2 z z/ A/c/e/f/a/ b/g/b/e'/g'/b'/ | z2 z z/!8va(! a/c'/e'/f'/a'/ c''/g'/e'/c'/g/e/ | %91
 f''/e''/c''/a'/f'/e'/ c'/a/f/e/!8va)! z z2 z | z/ f/a/b/d'/f'/ b'/f'/d'/b/a/f/!p! b3- | %93
 b2"_cresc."{/d'} c' b3 ^e3 | f3- fga agf | b>be'/c'/ b3 ^eag | g3 f3 gab | %97
 b2- b/c'/ c'3!8va(! d'e'f' |!f! g'"_cresc." b'2 b'a'g' g'f'e' | e'd'c'!8va)! c'ba agf | %100
 fe=c!ff! !>!c3!>(! B3- | Bef!>)!!p! f3 =g3- | g3!<(! ^g3 g2!<)!!mp! b |!>(! b3!>)!!p! a2 z z2 z | %104
 d6 def |!pp![Q:3/8=48] e2 z z2 z z E z | z EB z2 z z e z | z eA z2 z z A z | z ^^FG z2 z z EE | %109
 z dc z2 z!pp! d2 e |"_cresc." g3 f3 e2 d | c3 B3 ^A2 B |!mp! [=ac']3 [gb]3 [fa]2 [eg] | %113
!>(! [eg]3 [df]3 f3!>)! |!pp! z2 z e'3 e'3 | f'2 ^e' b'3 z z2 |!<(! z2 z!8va(! g'2 f' c''3!8va)! | %117
 d'2 c'!<)!!p!!>(! [ee']6- | [ee']3!>)!!pp! b3 b3 | b3- b z z z2 z | %120
!pp! .[e'g'].[d'f'].[c'e'] .[bd'].[ac'].[gb] .[fa].[eg].[df] | %121
 .[gb].[eg].[be'] .[ac'].[ea].[c'e'] z2 z | %122
 .[f'a'].[e'g'].[d'f'] .[c'e'].[bd'].[ac'] .[gb].[fa].[eg] | %123
 .[df].[fa].[eg] .[df].[c'e'].[bd'] .[ac'] z z | %124
 z!8va(! .[e''g''].[d''f''] .[c''e''].[b'd''].[a'c''] .[g'b'].[f'a'].[e'g'] | %125
 .[=d'f'].[c'e'].[bd'] .[ac'].[bd'].[ac']!8va)! z2 z | %126
!arpeggio!.[xc'f'a'c''].[g'b'].[f'a'] .[e'g'].[d'f'].[c'e'] .[bd'].[ac'].[gb] | %127
 .[fa].[eg].[df] .[c'e'].[bd'].[ac'] .[gb].[^^f^a].[^f=a] | [eg] z z!p! B3- B2 ^B | %129
"_cresc." ^B3 c6 | A3 c3- c2 =d | =d3 ^d6 | B3 d3- d2 e | e3 ^e6 | c3 f3- f2 g | %135
 g3 a3 d2- d/[Bb]/ |!f! [Bb]6 b3 | z c'd' e'd'c' bag | z2 z [ac']3 [=db=d']3 | %139
 [=db=d']3!f! [cac']3"_dim." [db]3 | [=db]3 [ca]3 e2- e/e'/ | [ee']6- [ee']3- | [ee']3 b3 a3 | %143
 g3 f3 e3 | a3 ^a3 b3 | [^B^b]3 [cc']3 [dd']3 |!pp! [ee']2 z z2 z z bb | z be z2 z z ff | %148
 z fB z2 z z BB/ z/ | z eA z2 z z =cc/ z/ | z BE z2 z z!ppp! .A z | z G/B,/ z z2 z [Ff]3 | %152
 [Ee]3 [Ff]3 [^^F^^f]3 | g6 g3 | g3 a3 ^a3 | b6 b3 | b3 x2 x4 | [EGe]3!8va(! [ff']3 [^^f^^f']3 | %158
 [gg']3 [aa']3 [^a^a']3 | g'6 x2 x | !arpeggio![e'g'b'e'']6- [e'g'b'e'']3 | %161
 !arpeggio![g'b'e'']6- [g'b'e'']3- | [g'b'e'']2!8va)! z z2 z4 |] %163
V:2
 z9 | z9 | z3 z3!p!!ped! G3- | GFC C3!ped-up!!ped! G3- | GFC C3!ped-up! E2 F | G2 G e3- eBG | %6
 F3- F2 z G3- | GBA F3 G3- | Gec/A/ F3 F2 G | A3- A2 B cfe | e3 d2 z4 | z9 | z9 | z9 | z9 | %15
 z3 z3!p! [A=c]3 | [Be]6 z2 z | z9 | z9 | z9 | z9 | z9 |!ped! D6- DEF | E2 z z3 z E z!ped-up! | %24
!ped! z EB z2 z z e z!ped-up! | z e!ped!^A z2 z z ^A z!ped-up! | z ^A!ped!B z2 z z ^B z!ped-up! | %27
 z d!ped!c z2 z z F z!ped-up! | z F!ped!B z2 z z B z!ped-up! | z B!ped!d z2 z z B z!ped-up! | %30
 z =d!ped!c z2 z z ^B!ped-up!c | z c!ped!g/f/ z2 z!ped-up!!ped! F/C/F/C/F/C/!ped-up! | %32
!mf!!ped! B/F/B/F/B/F/ B/F/B/F/B/F/ B/F/B/F/B/F/!ped-up! | %33
!ped! B/^^F/B/F/B/F/ B/F/B/F/B/F/ B/F/B/F/B/F/!ped-up! | %34
!ped! G/C/G/C/G/C/ G/C/G/C/G/C/"_dim." G/C/G/C/G/C/!ped-up! | %35
!ped! G/C/G/C/G/C/ G/C/G/C/G/C/!ped-up!!p!!ped! [^FAc]3!ped-up! |!p! c2 B- f6- | f3 fed dc^B | %38
 d2 c- g6 |!pp! [B=d]6- [Bd]3 | ^d6 =d3 | c3- c ^EF GF=E | z9 | %43
 z2 z .[gb].[eg].[Be] .[Bd].[df].[fb] | z2 z z2 z .[df].[ce].[Bd] | %45
 .[^Ac].[ce].[Bd] .[Ac].[gb].[f^a] .[eg].[df].[ce] | [Bd] z z z2 z z2 z | z9 | %48
 !arpeggio![Bce] z z z2 z z2 z | z9 | D3!pp!!ped! D/B,/D/B,/D/B,/ z!ped-up! z2 | %51
!ped! D/B,/D/B,/D/B,/!ped-up!!ped! z2 z D/B,/D/B,/D/B,/!ped-up! | %52
!pp!!ped! C/G,/C/G,/C/G,/!ped-up!!ped! !//-!E3 C3!ped-up! | %53
!ped! !//-!E3 C3 !//-!E3/2 C3/2!ped-up! | z FF/ z/ z FB z2 z | z dd/ z/ z d^B z2 z | %56
 z GG/ z/ z GB z2 z | z cc/ z/ z cF z2 z | [B,D][CE][DF] [EG][F^A][GB] [Ac][Bd][ce] | %59
 !arpeggio![Bdf]6 fed | cB^A G3 [F=A]3 | [F=A]3 [EG]3 =G3 | [DF]3 [EG]3 ^A3 | [GB]3 [^Ac]3 B3 | %64
 c6 c3 | c6 c3 | [CE]6 E3 | ^A6 x3 | B2 z z2 z z2 z | z9 | z2 z z2 z z"^perdendo""^dim." .B z | %71
!ped! z BE!ped-up! z2 z z!ped! =G z | z F!ped-up!B, z2 z z!ped! =G z | z F!ped-up!B, z2 z z C z | %74
 z F/B,/ z z2 z4 | z2 z .[B,DF]3 .[B,DF]3 |!ped! [B,DF]6- [B,-D-F]3!ped-up! | %77
 [B,D]3 .[B,DF]3 .[B,DF]3 |!ped! [B,DF]6- [B,DF]3- | [B,DF]3!ped-up! z2 z z2 z | z9 | z9 | z9 | %83
 z .E.F .G.A.^A .B.c.d | .e z!ped! z z2 z!ped-up!!p!!ped! G3- | GFC C3!ped-up!!ped! G3- | %86
 GFC C3!ped-up!!ped! E2 F!ped-up! |!ped! G2 G e3- eBG!ped-up! | %88
!ped! F3- F2 z!ped-up!!ped! G3-!ped-up! | GBA F3!ped! G3-!ped-up! | Gec/A/ F3!ped! F2 G | %91
 A3- A2!ped-up! B cfe | e3!ped! d2 z!ped-up! B3- | B2{/d} c B3 ^E3 | F3- FGA AGF | %95
 B>Be/c/ B3 ^EAG | G3 F3 GAB | B2- B/c/ c3 def | g b2 bag gfe | edc cBA AGF | FE=C !>!C3 B,3- | %101
 B,EF F3 =G3- | G3 ^G3 G2 B | B3 A2 z z2 z | z2 z z2 z z EF | E2 z z2 z z2 z | z9!ped!!ped-up! | %107
 E6-!ped! E3-!ped-up! | E6!ped! z2 z!ped-up! | [EF]6!ped!!ped-up!!pp!!ped! F/E/F/E/F/E/!ped-up! | %110
!ped!"_cresc." !//-![DF]3 [F,B,]3 !//-![DF]3/2 [F,B,]3/2!ped-up! | %111
!ped! !//-![DF]3 [F,B,]3 !//-![DF]3/2 [F,B,]3/2!ped-up! | %112
!ped!!p! !//-![DF]3 [F,B,]3 !//-![DF]3/2 [F,B,]3/2!ped-up! | %113
!ped! !//-![DF]3/2 [F,B,]3/2 [DF]/D/F/D/F/D/ F/ z/ z z!ped-up! |!p! f2 e b6- | b3- bag gf^e | %116
!<(! g2 f [cc']6 | d2 c!<)!!mp!!>(! c3 =c3!>)! |!p! B2 z z2 z z2 z | z2 z z ^AB =cB=A | z9 | %121
 z2 z z2 z .[gb].[eg].[gb] |!ped! !arpeggio!.[efac']!ped-up! z z z2 z z2 z | %123
 z2 z z2 z z .[gb].[fa] | .[eg] z z z2 z z2 z | z2 z z2 z .[gb].[fa].[eg] | %126
 !arpeggio![efa] z z z2 z z2 z | z9 | G3!pp!!ped! G/E/G/E/G/E/ z2!ped-up! z | %129
!ped!"_cresc." G/E/G/E/G/E/!ped-up! z2 z!ped! G/E/G/E/G/E/!ped-up! | %130
!ped![I:staff -1] !//-!A3/2 F3/2 !//-!A3 F3!ped-up! | %131
!ped! !//-!A3/2 F3/2!ped-up!!ped! !//-!A3 F3!ped-up! |[I:staff +1] z bb/ z/ z bg z2 z | %133
 z =dd/ z/ z dB z2 z | z AA/ z/ z Ac z2 z | z ff/ z/ z fB z2 z | %136
!mp! [EG]!f![FA][GB] [Ac][Bd][ce] [df][eg][fa] | %137
!ped! [gb]6!ped-up!!ped!!ped-up!!ped! z2!ped-up! z | %138
!ped! fe!ped-up!d!ped! [Ac]B!ped-up!A!ped! GF!ped-up!E | E6 E2 E/e/ | e6 [Bg]3 | %141
 [Af]3 [Bg]3 [=ca]3 | [Bg]6 z2 z | [B,E]3 [DF]3 [EG]3 | [FA]6- [FA]3 | [FA]6- [FA]3 | %146
 [EG]2 z z2 z z2 z | z9 | z9 | z9 | z9 | z2 z z2 z z .C z | z B,/G,/ z z2 z z2 z | %153
 z2 z .[EGB]3 .[EGB]3 | [EGB]6- [EGB]3 | [EG]3 .[EGB]3 .[EGB]3 | [EGB]6- [EGB]3 | [EG]6- [EG]3 | %158
 e6- e3 | [Bg]6- [Bg]3 |!ped! [GB]6- [GB]3!ped-up! |!ped! [EG]6 z2 z | z9!ped-up! |] %163
V:3
 x9 | x9 | x9 | x9 | x9 | x9 | x9 | x9 | x9 | x9 | x9 | x9 | x9 | x9 | x9 | x9 | x9 | x9 | x9 | %19
 x9 | x9 | x9 | x9 | x9 | x9 | x9 | x9 | x9 | x9 | x9 | x9 | x9 | x9 | x9 | x9 | x9 | F3- [FB]6 | %37
 [F=A]6- [FA]3 | G3- [Gc]6 | x9 | B6- B3 | B3 ^A x x4 | x9 | x9 | x9 | x9 | x9 | x9 | x9 | x9 | %50
 x9 | x9 | x9 | x9 | x9 | x9 | x9 | x9 | x9 | x9 | x9 | x6 CDE | x6 F3 | F6 F3 | ^A3 B3 A3 | %65
 =A3 G3 =G3 | C3 D3 C3 | F3 G3 ^A3 | x9 | x9 | x9 | x9 | x9 | x9 | x9 | x9 | x9 | x9 | x9 | x9 | %80
 x9 | x9 | x9 | x9 | x9 | x9 | x9 | x9 | x9 | x9 | x9 | x9 | x9 | x9 | x9 | x9 | x9 | x9 | x9 | %99
 x9 | x9 | x9 | x9 | x9 | x9 | x9 | x9 | x9 | x9 | x9 | x9 | x9 | x9 | x9 | x9 | x9 | x9 | x9 | %118
 x9 | x9 | x9 | x9 | x9 | x9 | x9 | x9 | x9 | x9 | x9 | x9 | z2 z z CC/ z/ z2 z | %131
 z2 z z ff/ z/ z2 z | x9 | x9 | x9 | x9 | x9 | x9 | x9 | x9 | x9 | x9 | x9 | x9 | x9 | x9 | x9 | %147
 x9 | x9 | x9 | x9 | x9 | x9 | x9 | x9 | x9 | x9 | x9 | x9 | x9 | x9 | x9 | x9 |] %163
V:4
 x9 | x9 | x9 | x9 | x9 | x9 | x9 | x9 | x9 | x9 | x9 | x9 | x9 | x9 | x9 | x9 | x9 | x9 | x9 | %19
 x9 | x9 | x9 | x9 | x9 | x9 | x9 | x9 | x9 | x9 | x9 | x9 | x9 | x9 | x9 | x9 | x9 | x9 | %37
 =a3- a3 x2 x | x9 | x9 | x9 | x9 |!8va(! x9 | x3!8va)! x6 | x9 | x9 |!8va(! x9 | x9!8va)! | x9 | %49
 x9 | x9 | x9 | x9 | x9 | x9 | x9 | x9 | x9 |!8va(! x9 | x9!8va)! | x9 | x9 | x9 | x9 | e6- e3 | %65
 e6- e3 | c3 d3 e3 | x9 | x9 | x9 | x9 | x9 | x9 | x9 | x9 | x9 | x9 | F3 z2 z z2 z | %78
 z2 z ^^F3 G3 | x9 | x9 | x9 | x9 | x9 | x9/2!8va(! x5/2!8va)! x2 | x3!8va(! x6!8va)! | %86
 x6!8va(! x3!8va)! | x9 | x9 | x9 | x7/2!8va(! x11/2 | x5!8va)! x4 | x9 | x9 | x9 | x9 | x9 | %97
 x6!8va(! x3 | x9 | x3!8va)! x6 | x9 | x9 | x9 | x9 | x9 | x9 | x9 | x9 | x9 | x9 | x9 | x9 | x9 | %113
 x9 | x9 | =d'3- d'3 x x2 | x3!8va(! x6!8va)! | x9 | x9 | x9 | x9 | x9 | x9 | x9 | x!8va(! x8 | %125
 x6!8va)! x3 | x9 | x9 | x9 | x9 | x9 | x9 | x9 | x9 | x9 | x9 | x9 | x9 | x9 | x9 | x9 | x9 | x9 | %143
 x9 | d6- d3 | x9 | x9 | x9 | x9 | x9 | x9 | x9 | x9 | G3 z2 z z2 z | z2 z A3 ^A3 | B3 z2 z z2 z | %156
 z2 z [Cc]3 [Dd]3 | x3!8va(! x6 | x9 | [bb']3 [c'c'']3 [d'd'']3 | x9 | x9 | x2!8va)! x7 |] %163
V:5
!pp! !////!B,3 !////!B,6 | !////-!G,3 B,3 !////-!G,3/2 B,3/2 | %2
 !////-![G,B,]3/2 E3/2 !////-![E,G,B,]3/2 E3/2 !////-![E,G,]3/2 B,3/2 | %3
[K:bass]!pp! [E,F,A,]/8C/8[E,F,A,]/8C/8[E,F,A,]/8C/8[E,F,A,]/8C/8[E,F,A,]/8C/8[E,F,A,]/8C/8[E,F,A,]/8C/8[E,F,A,]/8C/8[E,F,]/8A,/8[E,F,]/8A,/8[E,F,]/8A,/8[E,F,]/8A,/8 !////-![E,F,]3/2 A,3/2 !////-![E,G,]3/2 B,3/2 | %4
!pp! [E,F,A,]/8C/8[E,F,A,]/8C/8[E,F,A,]/8C/8[E,F,A,]/8C/8[E,F,A,]/8C/8[E,F,A,]/8C/8[E,F,A,]/8C/8[E,F,A,]/8C/8[E,F,]/8A,/8[E,F,]/8A,/8[E,F,]/8A,/8[E,F,]/8A,/8 !////-![E,F,]3/2 A,3/2 !////-!E,3/2 B,3/2 | %5
 !////-![E,G,B,]3 E3 !////-![E,G,]3/2 B,3/2 | !////-![E,F,]3 C3 !////-![E,G,]3/2 B,3/2 | %7
 !////-![E,F,]3 C3 !////-![E,G,]3/2 B,3/2 | !////-![E,F,]3 C3 !////-![E,G,C]3/2 E3/2 | %9
[K:treble] !////-![A,CE]3 F3 !////-![A,CE]3/2 F3/2 | !////-![A,B,]3 F3 !////-![A,B,D]3/2 F3/2 | %11
 !////-![G,B,E]3/2 G3/2 !////-![G,B,]3/2 E3/2 !////-![G,B,]3/2 ^^C3/2 | %12
 !////-![A,B,]3 D3 !////-![A,B,]3/2 D3/2 | !////-![G,B,]3 E3 !////-![G,B,]3/2 ^^C3/2 | %14
 !////-![A,B,]3 D3 !////-![E,G,B,=D]3/2 E3/2 |!pp! !////-![E,A,C]3 E3!pp! !////-![A,=CD]3/2 F3/2 | %16
!mf! !////-![E,B,]3 E3 !////-![E,B,]3/2 E3/2 | %17
!mf! !////-![E,F,C]3 E3[K:bass]!mf! !////-![E,F,A,]3/2 C3/2 | %18
!mf! !////-![E,F,]3 A,3!mp!!>(! !////-!E,3/2 G,3/2 | %19
 E,/8G,/8E,/8G,/8E,/8G,/8E,/8G,/8E,/8G,/8E,/8G,/8E,/8G,/8E,/8G,/8E,/8[G,B,]/8E,/8[G,B,]/8E,/8[G,B,]/8E,/8[G,B,]/8!>)!!pp! !////-![E,F,]3/2 ^A,3/2 !////-![E,=G,]3/2 A,3/2 | %20
 !////-![E,=G,]3/2 ^A,3/2 !////-![E,^G,]3 B,3 | !////-![E,A,]3 E3 !////-!F,3/2 A,3/2 | %22
!pp! !////-!F,3/2 A,3/2 !////-![F,A,]3/2 B,3/2 [F,A,]/8B,/8[F,A,]/8B,/8[F,A,]/8B,/8[F,A,]/8B,/8[G,A,]/8B,/8[G,A,]/8B,/8[G,A,]/8B,/8[G,A,]/8B,/8A,/8B,/8A,/8B,/8A,/8B,/8A,/8B,/8 | %23
!pp! G,/[G,B,]/[G,B,]/[G,B,]/[G,B,]/[G,B,]/ [G,B,]/[G,B,]/[G,B,]/[G,B,]/[G,B,]/[G,B,]/ [G,B,]/[G,B,]/[G,B,]/[G,B,]/[G,B,]/[G,B,]/ | %24
 !//![G,B,]6 !//![G,B,]3 | !//![G,C]6 !//![G,C]3 | !//![E,G,B,]6 !//![E,G,B,]3 | %27
 !//![E,F,]6 !//!F,3 |!pp! D,/F,/B,/D/B,/F,/ D,/F,/B,/D/B,/F,/ D,/F,/B,/D/B,/F,/ | %29
"_cresc." F,/B,/D/F/D/B,/ F,/B,/D/F/D/B,/ F,/B,/D/F/D/B,/ | %30
 G,/B,/C/^E/C/B,/ G,/B,/C/E/C/B,/ G,/B,/C/E/C/B,/ | %31
 F,/^A,/C/F/C/A,/ F,/A,/C/F/C/A,/ E,/^A,/F,/A,/F,/A,/ | %32
!f! F,/B,/F,/B,/F,/B,/ F,/B,/F,/B,/F,/B,/ F,/B,/F,/B,/F,/B,/ | %33
 ^^F,/B,/F,/B,/F,/B,/ F,/B,/F,/B,/F,/B,/ F,/B,/F,/B,/F,/B,/ | %34
 G,/B,/G,/B,/G,/B,/ G,/B,/G,/B,/G,/B,/"_dim." G,/B,/G,/B,/G,/B,/ | %35
 G,/B,/G,/B,/G,/B,/ G,/B,/G,/B,/G,/B,/!p! =E,/F,/^A,/C/A,/F,/ | %36
!pp! D,/F,/B,/D/B,/F,/ D,/F,/B,/D/B,/F,/ D,/F,/B,/D/B,/F,/ | %37
 D,/F,/=A,/D/A,/F,/ D,/F,/A,/D/A,/F,/ D,/F,/A,/D/A,/F,/ | %38
 E,/G,/C/E/C/G,/ E,/G,/C/E/C/G,/ E,/G,/C/E/C/G,/ | %39
[K:treble] B,/=D/G/D/B,/D/ G,/B,/D/G/D/B,/ =G,/B,/D/=G/D/B,/ | %40
[K:bass] F,/B,/^D/F/D/B,/ F,/B,/D/F/D/B,/ F,/B,/=D/F/D/B,/ | %41
 F,/B,/C/E/C/B,/ F,/^A,/C/E/C/A,/ F,/A,/C/A,/F,/A,/ |[K:treble]!p! D6 [CE]3 | [DF]3 [EG]3 [DF]3 | %44
 [B,-CE-]6 [B,CE]3 | E3 F3 C3 | D6 E3 | F3 B3 G3 | [B,CE]6- [B,CE]3 | E3 G3 F2 C | %50
!pp! B,2 z z2 z[K:bass] F,/B,/F,/B,/^^F,/B,/ | z2 z G,B,G, B,G,B, |"_cresc." z2 z z E,E,/ z/ z z2 | %53
 z2 z z ^A,A,/ z/ z z2 | !//-![D,F,]3 [B,D]3 !//-![D,F,]3/2 [B,D]3/2 | %55
[K:treble] !//-![F,A,]3/2 [^B,D]3/2 !//-![F,A,]3/2 [B,E]3/2 !//-![F,A,]3/2 [B,F]3/2 | %56
[K:bass] !//-![^E,G,]3 [=B,C]3 !//-![E,G,]3/2 [B,C]3/2 | %57
 !//-![E,F,]3/2 ^A,3/2 !//-![E,F,]3/2 B,3/2 !//-![E,F,]3/2 C3/2 | %58
!f! [B,,D,]!f![C,E,][D,F,] [E,G,][F,^A,][G,B,] [A,C][B,D][CE] | %59
[K:treble] !arpeggio![F,B,DF]6- [F,B,D-F-]3 | [DF]3 EFE DC^B, | ^B,3!>(! C3 ^A,=B,C!>)! | %62
[K:bass]!p! F,6- F,3- | F,6- F,3 |[K:treble]"_dim." [CE]6- [CE]3- | [CE]6- [CE]3 | %66
[K:bass]!pp! F,6- F,3 |[K:treble] [CE]6- [CE]3 |!pp! [F,B,D] z z .F,/.B,/.D/.F/.B/.d/ [A,B,-DF]3 | %69
 [G,B,EG] z z .E,/.G,/.B,/.E/.G/.B/[K:bass] [=G,B,-CE]3 | %70
 [F,B,DF] z z .D,/.F,/.B,/[K:treble].D/.F/.B/[K:bass] [D,F,]3 | %71
 [E,G,] z z .G,,/.B,,/.E,/.G,/.B,/.E/ [C,E,]3 | %72
 .[B,,D,].[B,,D,] z[I:staff +1] .D,,/.F,,/[I:staff -1].B,,/.D,/.F, [=G,^A,CE]-[G,A,CE]/ z/ z | %73
 .[F,B,D] z z z2 z .[E,=G,^A,] z z | .[D,F,] .D,,.F,, .B,, z z4 | z9 | z9 |[K:treble] f6 f3 | %78
 f3"_cresc." ^^f3 g3 | a3 ^a3 b3 |!f! =c'6- c'3 |[K:bass] z9 |!>(! [E,A,E]6- [E,A,E]3!>)! | %83
!p!"_dim." [F,-A,-B,-D]6 [F,A,B,]3 | %84
!pp! !////-!G,3/2 B,3/2 !////-![E,G,]3/2 [B,E]3/2 !////-![E,G,]3/2 B,3/2 | %85
 [E,F,A,]/8C/8[E,F,A,]/8C/8[E,F,A,]/8C/8[E,F,A,]/8C/8[E,F,A,]/8C/8[E,F,A,]/8C/8[E,F,A,]/8C/8[E,F,A,]/8C/8[E,F,]/8A,/8[E,F,]/8A,/8[E,F,]/8A,/8[E,F,]/8A,/8 !////-![E,F,]3/2 A,3/2 !////-!E,3/2 B,3/2 | %86
 [E,F,A,]/8C/8[E,F,A,]/8C/8[E,F,A,]/8C/8[E,F,A,]/8C/8[E,F,A,]/8C/8[E,F,A,]/8C/8[E,F,A,]/8C/8[E,F,A,]/8C/8[E,F,]/8A,/8[E,F,]/8A,/8[E,F,]/8A,/8[E,F,]/8A,/8 !////-![E,F,]3/2 A,3/2 !////-!E,3/2 B,3/2 | %87
 !////-![E,G,B,]3 E3 !////-![E,G,]3/2 B,3/2 | !////-![E,F,]3 C3 !////-![E,G,]3/2 B,3/2 | %89
 !////-![E,F,]3 C3 !////-![E,G,]3/2 B,3/2 | !////-![E,F,]3 C3 !////-![E,G,]3/2 C3/2 | %91
[K:treble] !////-![A,CE]3 F3 !////-![A,CE]3/2 F3/2 | !////-![A,B,]3 F3 !////-![A,B,D]3/2 F3/2 | %93
!pp! !////-![B,E]3/2 G3/2"_cresc." !////-![B,E]3/2 G3/2 !////-![B,^^C]3/2 G3/2 | %94
 !////-![B,D]3/2 A3/2 !////-![B,D]3/2 F3/2 !////-!B,3/2 D3/2 | %95
 !////-![B,E]3/2 G3/2 !////-!B,3/2 E3/2 !////-!B,3/2 ^^C3/2 | %96
 !////-!B,3 D3 !////-![G,B,=D]3/2 E3/2 | %97
 !////-![E,A,C]3/2 E3/2 !////-![E,A,C]3/2 E3/2 !////-![A,=CD]3/2 F3/2 | %98
!f! !////-![E,B,]3 E3"_cresc." !////-![E,B,]3/2 E3/2 | %99
[K:bass] !////-![E,F,A,]3 C3 !////-![E,F,A,]3/2 C3/2 | %100
 [E,F,A,]/8=C/8[E,F,A,]/8C/8[E,F,A,]/8C/8[E,F,A,]/8C/8[E,F,A,]/8C/8[E,F,A,]/8C/8[E,F,A,]/8C/8[E,F,A,]/8C/8[E,F,]/8A,/8[E,F,]/8A,/8[E,F,]/8A,/8[E,F,]/8!ff!A,/8!>(! !////-![E,F,]3/2 A,3/2 !////-!E,3/2 G,3/2 | %101
 !////-!E,3/2 G,3/2!>)![K:treble]!p! G/C/[I:staff +1]^A,/G,/A,/[I:staff -1]C/ E/C/[I:staff +1]A,/=G,/A,/[I:staff -1]C/ | %102
 E/C/[I:staff +1]^A,/=G,/A,/[I:staff -1]C/!<(! E/[I:staff +1]B,/^G,/E,/G,/B,/[I:staff -1] E/[I:staff +1]B,/G,/E,/G,/B,/!<)! | %103
!p![I:staff -1] E/!>(!C/[I:staff +1]A,/E,/A,/[I:staff -1]C/ E/C/[I:staff +1]A,/E,/A,/[I:staff -1]C/!>)!!p! F/D/[I:staff +1]A,/F,/A,/[I:staff -1]D/ | %104
 F/D/[I:staff +1]A,/F,/A,/[I:staff -1]D/ F/D/[I:staff +1]A,/F,/A,/[I:staff -1]D/ A,/B,/A,/C/A,/D/ | %105
!pp! G,/[G,B,]/[G,B,]/[G,B,]/[G,B,]/[G,B,]/ !//![G,B,]6 | !//![G,B,]6 !//![G,B,]3 | %107
[K:bass] !//![E,A,]6 !//![E,A,]3 | !//![E,G,B,]6 !//![E,G,B,]3 | !//![F,C]6 ^A,,A,,A,, | %110
"_cresc." .=A,,.[A,,B,,].[A,,B,,] .[A,,B,,].[A,,B,,].[A,,B,,] .[A,,B,,].[A,,B,,].[A,,B,,] | %111
 .[A,,B,,].[A,,B,,].[A,,B,,] .[A,,B,,].[A,,B,,].[A,,B,,] .[A,,B,,].[A,,B,,].[A,,B,,] | %112
!pp! !//-!B,,3 A,,3 !//-!B,,3/2 A,,3/2 | %113
!>(! B,,/A,,/B,,/A,,/B,,/A,,/ B,, z z z/[K:treble] D/F/D/F/D/!>)! |!pp! !//-!G3 E3 !//-!G3/2 E3/2 | %115
 !//-!B3 G3 !//-!B3/2 G3/2 |!<(! !//-!A3 F3 !//-!A3/2 F3/2 | %117
 =G/E/G/E/G/E/!<)!!pp! G/!>(!E/G/E/G/E/ G/E/G/E/G/E/ | %118
 G/E/G/E/G/E/!>)! G/!pp!E/G/E/G/E/ E/B,/E/B,/E/B,/ | E/B,/E/B,/E/B,/ !//-!D3 B,3 | %120
!pp! [EG]6 [DA]3 | [=DB]3 [Cc]3 [EB]3 | [EA]6- [EA-]3 | A3 B3 F3 | [EG]6 [DA]3 | [=DB]3 e3 [Ec]3 | %126
 [EA]6- [EA]3 | A3 c3 B2 F |[K:bass]!pp! [E,E]/B,/E,/B,/E,/B,/ z2 z E,/B,/E,/B,/E,/B,/ | %129
 z2 z E,/B,/E,/B,/E,/B,/ z2 z | !//-!E,3 B,3 !//-!E,3/2 B,3/2 | !//-!E,3 B,3 !//-!E,3/2 B,3/2 | %132
!pp! B,3 D3 D2 E |[K:treble]!p! E3 ^E6 | C3 F3- F2 G | G3 A3[K:bass] D3 | %136
!f! [E,G,]!f![F,A,][G,B,][K:treble] [A,C][B,D][CE] [DF][EG][FA] | z cd edc BAG | %138
 FED[K:bass] CB,A, [B,=D]3 | [B,=D]3!f! [A,C]3"_dim." [=D,E,B,]3- | [D,B,]3 [C,A,]3 [B,,E,G,]3 | %141
 [A,,F,]3 [B,,G,]3 [=C,E,A,]3 | [B,,E,G,]6- [B,,E,G,]3 | E,3 [D,F,]3 [E,G,]3 | %144
 [F,A,B,]6- [F,A,B,]3- | [F,A,B,]6- [F,A,B,]3 | %146
!pp! [G,B,]/[G,B,]/[G,B,]/[G,B,]/[G,B,]/[G,B,]/[K:treble] .G,/.B,/.E/.G/.B/.e/[K:bass] [=D,E,-G,B,]3 | %147
 [C,E,A,C]/ z/ z z[K:treble] z/ .A,/.C/.E/.A/.c/[K:bass] [=C,E,-F,A,]3 | %148
 [B,,E,G,B,]/ z/ z z z/ .E,/.G,/.B,/.E/.G/ [=D,E,-]3 | [C,E,]/ z/ z z .E,/.A,/.C/.E/ z [=C,^D,]3 | %150
 [B,,E,]/E,/E,/E,/E,/E,/ .E,.G,.B, .[A,,=C,^D,] z z | .[G,,B,,E,].E, z z2 z!ppp! .[A,,=C,^D,] z z | %152
 .[G,,B,,E,] z z z2 z z2 z | z9 | z9 | z9 | G,6- G,3 | E,6- E,3 | [B,E]6- [B,E]3 | %159
 [G,B,]6- [G,B,]3 | [E,G,]6- [E,G,]3 | [E,G,] z z z2 z z2 z | z9 |] %163
V:6
!ped! z9 | z9 | z2 z z2 z!pp!{/E,,,} E,,3 |{/A,,,} A,,6{/E,,,} E,,3 |{/A,,,} A,,6{/C,,} C,3 | %5
{/B,,,} B,,6{/B,,,} B,,3 |{/^A,,,} ^A,,6{/B,,,} B,,3 |{/=A,,,} =A,,6{/B,,,} B,,3 | %8
{/A,,,} A,,6{/G,,,} G,,3 |{/F,,,} F,,6 F,,3 |{/B,,,} B,,6 B,,3 |{/E,,} E,3{/B,,,} B,,6 | %12
{/F,,} F,3{/B,,,} B,,6 |{/E,,} E,3{/B,,,} B,,6 |{/F,,} F,2 B,,{/B,,,} B,,3 E,,3 | %15
!pp! E,,3 A,,3!pp!{/[A,,,E,,]} A,,3 |!pp!{/G,,,} G,,3 E,,3 E,,3 | E,,6 A,,3 | %18
 A,,3!mf!{/A,,,} A,,3!mp!{/B,,,} B,,3 |!p! B,,3!p!{/C,,} C,6 | C,3{/=D,,} =D,6 | %21
{/C,,} C,6 [=C,,=C,]3 |!pp! [=C,,=C,]3{/B,,,} B,,6!ped-up! | %23
!ped! [E,,E,] z2 z3 [E,,E,] z z!ped-up! |!ped! [D,,D,] z z z2 z [D,,D,] z z!ped-up! | %25
!ped! [C,,C,] z z z2 z [C,,C,] z z!ped-up! |!ped! [B,,,B,,] z z z2 z [B,,,B,,] z z!ped-up! | %27
!ped! [^A,,,^A,,] z z z2 z!ped-up!!ped! [F,,,F,,] z z!ped-up! | %28
!ped! [B,,,B,,] z z z2 z [B,,,B,,] z z!ped-up! |!ped! [D,,D,] z z z2 z [D,,D,] z z!ped-up! | %30
!ped! [C,,C,] z z z2 z [C,,C,] z z!ped-up! |!ped! [E,,E,] z z z2 z [E,,E,][E,,E,][E,,E,]!ped-up! | %32
!ped! [D,,D,][D,,D,][D,,D,] [D,,D,][D,,D,][D,,D,] [D,,D,][D,,D,][D,,D,]!ped-up! | %33
!ped! [D,,D,][D,,D,][D,,D,] [D,,D,][D,,D,][D,,D,] [D,,D,][D,,D,][D,,D,]!ped-up! | %34
!ped! [E,,E,][E,,E,][E,,E,] [E,,E,][E,,E,][E,,E,] [E,,E,][E,,E,][E,,E,]!ped-up! | %35
!ped! [^E,,^E,][E,,E,][E,,E,] [E,,E,][E,,E,][E,,E,]!ped-up!!ped! z2 z!ped-up! |!ped! z9!ped-up! | %37
!ped! z9!ped-up! |!ped! z9!ped-up! | %39
!ped! z2 z!p! [^E,,^E,] z z!ped-up!!ped! [^E,,,E,,] z z!ped-up! | %40
!ped! [F,,,F,,] z z z2 z z2 z!ped-up! |!ped! [F,,,F,,]2 z z2 z z2 z!ped-up! | %42
!pp!!ped! [B,,,B,,] z z z2 z z2 z!ped-up! |!ped! z9!ped-up! |!ped! [B,,G,]6- [B,,G,]3!ped-up! | %45
!ped! [B,,F,]6- [B,,F,]3!ped-up! |!ped!{/B,,,} B,,6!ped-up! C,3 |!ped! D,3 [E,G,]3!ped-up! D,3 | %48
!ped! [B,,C,E,G,]6- [B,,-C,-E,-G,]3!ped-up! | %49
!ped! [B,,C,E,F,]6-!ped-up!!ped! [B,,C,E,F,]3!ped-up! | %50
!ped! B,,,B,,B,, B,,,B,,B,,!ped-up!!ped! B,,3!ped-up! |!ped! F,,B,,B,, B,,,B,,B,, B,,3!ped-up! | %52
!ped! B,,,B,,B,, F,,B,,B,, B,,3!ped-up! |!ped! F,,B,,B,, B,,,B,,B,, B,,3!ped-up! | %54
!ped! F,,B,,B,, F,,B,,B,, B,,3!ped-up! | %55
!ped! F,,B,,B,,!ped-up!!ped! F,,B,,B,,!ped-up!!ped! B,,3!ped-up! | %56
!ped! F,,B,,B,, F,,B,,B,, B,,3!ped-up! | %57
!ped! F,,B,,B,,!ped-up!!ped! F,,B,,B,,!ped-up!!ped! B,,3!ped-up! | B,,,C,,D,, E,,F,,G,, ^A,,B,,C, | %59
!ped! D,6 E,3!ped-up! | F,6- F,3 | [C,,-G,,]6 [C,,=G,,]3 | [D,,F,,]3 E,,3 F,,3- | F,,6- F,,3 | %64
!ped! [F,,F,]6- [F,,F,]3- | [F,,F,]6- [F,,F,]3!ped-up! |!ped! F,,6- F,,3!ped-up! | %67
!ped! [F,,F,]6- [F,,F,]3!ped-up! |!ped! [B,,,B,,]/B,,/B,,/B,,/B,,/B,,/ B,,!ped-up! z z z2 z | %69
!ped! [B,,,B,,]/B,,/B,,/B,,/B,,/B,,/ B,,!ped-up! z z z2 z | %70
!ped! [B,,,B,,]/B,,/B,,/B,,/B,,/B,,/ B,,!ped-up! z z"^perdendo""^dim." [A,,B,,]3 | %71
!ped! [B,,,G,,B,,]/B,,/B,,/B,,/B,,/B,,/ B,,!ped-up! z z [=G,,^A,,]3 | %72
 .[B,,,F,,].[B,,,F,,] z x2 x z2 z | .[B,,,B,,] z z .[D,,F,,].[F,,B,,].[B,,D,] z2 z | %74
 .B,,, z z z2 z .[B,,,B,,] z z | z9 | z!pppp! .B,,, z z2 z z2 z | z9 | z9 | z9 | z9 | %81
!f! [=C,,=C,]6- [C,,C,]3- | [C,,C,]6- [C,,C,]3 | [B,,,B,,]6- [B,,,B,,]3 | %84
!pp!!ped!{/E,,,} E,,/B,,/E,/ z/ z z2 z{/E,,,} E,,3 |{/A,,,} A,,6{/E,,,} E,,3 | %86
{/A,,,} A,,6{/C,,} C,3 |{/B,,,} B,,6{/B,,,} B,,3 |{/^A,,,} ^A,,6{/B,,,} B,,3 | %89
{/=A,,,} =A,,6{/B,,,} B,,3 |{/A,,,} A,,6{/G,,,} G,,3 |{/F,,,} F,,6 F,,3 | %92
{/B,,,} B,,6 B,,3!ped-up! | %93
!pp!!ped! E,,/"_cresc."B,,/E,/G,/E,/B,,/ B,,,/B,,/E,/G,/E,/B,,/ B,,/^^C,/^E,/G,/E,/C,/!ped-up! | %94
!ped! F,,/B,,/D,/A,/F,/D,/ B,,,/B,,/D,/A,/F,/D,/ B,,/D,/F,/A,/F,/D,/!ped-up! | %95
!ped! E,,/B,,/E,/G,/E,/B,,/ B,,,/B,,/E,/G,/E,/B,,/ B,,/^^C,/^E,/G,/F,/C,/!ped-up! | %96
!ped! F,,/B,,/D,/A,/F,/D,/ B,,,/B,,/D,/A,/F,/D,/ .[E,,E,].[E,,E,].[E,,E,]!ped-up! | %97
!ped! [A,,,A,,][A,,,A,,][A,,,A,,] [A,,,A,,][A,,,A,,][A,,,A,,] [A,,,A,,][A,,,A,,][A,,,A,,]!ped-up! | %98
!f!!ped!"_cresc." [G,,,G,,]/E,,/[G,,,G,,]/E,,/[G,,,G,,]/E,,/ [G,,,G,,]/E,,/[G,,,G,,]/E,,/[G,,,G,,]/E,,/ [G,,,G,,]/E,,/[G,,,G,,]/E,,/[G,,,G,,]/E,,/!ped-up! | %99
!ped! !////-![A,,,A,,]3 [E,,F,,]3 !////-![A,,,A,,]3/2 [E,,F,,]3/2!ped-up! | %100
!ped! [A,,,A,,]/[E,,F,,]/[A,,,A,,]/[E,,F,,]/[A,,,A,,]/!ff![E,,F,,]/!>(! !//-![A,,,A,,]3/2 [E,,F,,]3/2!ped-up!!ped! !//-![B,,,B,,]3/2 [E,,G,,]3/2 | %101
 !//-![B,,,B,,]3/2 [E,,G,,]3/2!>)!!ped-up!!p!!ped! !////-!C,,3 C,3 | %102
 !////-!C,,3/2 C,3/2!ped-up!!ped! !////-!=D,,3 =D,3!ped-up! | %103
!ped! !////-!C,,3 C,3!ped-up!!ped! !////-!=C,,3/2 =C,3/2 | %104
 !////-!=C,,3/2 =C,3/2!ped-up!!ped! !////-!B,,,3 B,,3!ped-up! | %105
!pp!!ped! E,, z z z2 z [E,,E,] z z!ped-up! |!ped! [=D,,=D,] z z z2 z [D,,D,] z z!ped-up! | %107
!ped! [C,,C,] z z z2 z [C,,C,] z z!ped-up! |!ped! [B,,,B,,] z z z2 z [B,,,B,,] z z!ped-up! | %109
!ped! [^A,,,^A,,] z z z2 z A,,, z z!ped-up! | =A,,,2 z A,,,2 z A,,,2 z | A,,,2 z A,,,2 z A,,,2 z | %112
!ped! !//-!A,,,3 B,,,3 !//-!A,,,3/2 B,,,3/2!ped-up! | %113
!ped! A,,,/B,,,/A,,,/B,,,/A,,,/B,,,/ A,,,!ped-up! .[A,B,].[A,B,] .[A,B,].[A,B,].[A,B,] | %114
!ped! !/![G,B,]6 !/![G,B,]3!ped-up! |!ped! !/![G,B,=D]6 !/![G,B,D]3!ped-up! | %116
!ped! !/![A,C]6 !/![A,C]3!ped-up! |!ped! [^A,C][A,C][A,C] ^A,,2 z ^A,,,2 z!ped-up! | %118
!ped! B,,,2 z [B,,G,][B,,G,][B,,G,] [B,,=G,][B,,G,][B,,G,]!ped-up! | %119
!ped! [B,,F,][B,,F,][B,,F,] !/![B,,F,]6!ped-up! |!ped!{/E,,} E,6 F,3!ped-up! | %121
!ped! G,3 A,3 G,3!ped-up! |!ped! F,6- F,3-!ped-up! |!ped! F,6- F,3!ped-up! |!ped! E,6 F,3!ped-up! | %125
!ped! G,3 [A,C]3 G,3!ped-up! |!ped! F,3 G,3 A,3!ped-up! | B,6- B,3 | %128
!ped! E,,B,,B,, E,,B,,B,, B,,3!ped-up! |!ped! E,,B,,B,, E,,B,,B,, B,,3!ped-up! | %130
!ped! E,,B,,B,, B,,3 E,,B,,B,,!ped-up! |!ped! B,,3 E,,B,,B,, B,,3!ped-up! | %132
!ped! [E,,B,,][E,,B,,][E,,B,,] [E,,B,,][E,,B,,][E,,B,,] [E,,B,,][E,,B,,][E,,B,,]!ped-up! | %133
!ped! !//![E,,B,,]6 !//![E,,B,,]3!ped-up! |!ped! !//![E,,B,,]6 !//![E,,B,,]3!ped-up! | %135
!ped! !//![E,,B,,]6!ped-up!!ped! !//![E,,B,,]3!ped-up! | %136
 [E,,G,,][F,,A,,][G,,B,,] [A,,C,][B,,D,][C,E,] [D,F,][E,G,][F,A,] | %137
!ped! !arpeggio![G,B,]6-!ped-up!!ped!!ped-up!!ped! [G,B,]3-!ped-up! | %138
!ped! [G,B,]3!ped-up!!ped! A,2!ped-up! z!ped! z2!ped-up! z | [A,,,E,,A,,]6- [A,,,E,,A,,]3- | %140
 [A,,,E,,A,,]6- [A,,,-E,,A,,]3 | E,,6- E,,3 |!ped! B,,,6- B,,,3-!ped-up! | %143
 [B,,,B,,]6- [B,,,B,,]3- |!ped! [B,,,B,,]6- [B,,,B,,]3- | [B,,,B,,]6- [B,,,B,,]3!ped-up! | %146
!ped! [E,,E,]2 z!ped-up! z2 z z2 z |!ped! E,,/E,/E,/E,/E,/E,/ E,!ped-up! z z z2 z | %148
!ped! E,,/E,/E,/E,/E,/E,/ E,!ped-up! z z [G,,B,,]3 | %149
!ped! [E,,A,,]/E,/E,/E,/E,/E,/!ped-up! z2 z [F,,A,,]3 |!ped! B,, z z z2!ped-up! z z2 z | %151
 E,,6 .E,, z z | .E,, z z z2 z z2 z | z2 z .E,, z z z2 z | z9 | z9 | z9 | z9 | %158
!ped! B,,6- B,,3!ped-up! |!ped! G,,6- G,,3!ped-up! |{/E,,,} E,,2 G,, G,,2 A,, ^A,,2 B,, | %161
 .E,,, z E,, G,,3 G,,2 A,, | A,,3 B,, z z .E,,, E,,2 |] %163
V:7
 x9 | x9 | x9 | x9 | x9 | x9 | x9 | x9 | x9 | x9 | x9 | x9 | x9 | x9 | x9 | A,,, z z x3 x3 | %16
 z3 z3 G,,,2 z | A,,,2 z x2 x4 | x9 | x9 | C,, z z x2 x4 | x9 | x9 | x9 | x9 | x9 | x9 | x9 | x9 | %29
 x9 | x9 | x9 | x9 | x9 | x9 | x9 | x9 | x9 | x9 | x9 | x9 | x9 | x9 | x9 | x9 | x9 | B,,6- B,,3- | %47
 B,,6- B,,3 | x9 | x9 | B,,,3 B,,,3 B,,B,,,B,,, | B,,,3 B,,,3 F,,B,,,B,,, | %52
 B,,,3 B,,,3 B,,B,,,B,,, | B,,,3 B,,,3 F,,B,,,B,,, | B,,,3 B,,,3 F,,B,,,B,,, | %55
 B,,,3 B,,,3 F,,B,,,B,,, | B,,,3 B,,,3 F,,B,,,B,,, | B,,,3 B,,,3 F,,B,,,B,,, | x9 | x9 | x9 | x9 | %62
 x9 | x9 | x9 | x9 | x9 | x9 | x9 | x9 | x9 | x9 | x9 | x9 | x9 | x9 | x9 | x9 | x9 | x9 | x9 | %81
 x9 | x9 | x9 | x9 | x9 | x9 | x9 | x9 | x9 | x9 | x9 | x9 | E,, x2 B,,, x x4 | F,, x2 B,,, x x4 | %95
 E,, x2 B,,, x x4 | F,, x2 B,,, x x4 | x9 | x9 | x9 | x9 | x9 | x9 | x9 | x9 | x9 | x9 | x9 | x9 | %109
 x9 | x9 | x9 | x9 | x9 | x9 | x9 | x9 | x9 | x9 | x9 | E,6- E,3- | E,6- E,3- | E,6- E,3- | %123
 E,6- E,3 | E,6- E,3- | E,6- E,3 | [E,F,]6- [E,F,]3 | [E,F,]6- [E,F,]3 | E,,3 E,,3 B,,E,,E,, | %129
 E,,3 E,,3 B,,E,,E,, | E,,3 B,,E,,E,, E,,3 | B,,E,,E,, E,,3 B,,E,,E,, | x9 | x9 | x9 | x9 | x9 | %137
 x9 | x9 | x9 | x9 | A,,,3 G,,,3 F,,,3 | x9 | x9 | x9 | x9 | x9 | x9 | x9 | x9 | E,,6- E,,3- | x9 | %152
 x9 | x9 | x9 | x9 | x9 | x9 | x9 | x9 | x9 | x9 | x9 |] %163
V:8
 x9 | x9 | x9 |[K:bass] x9 | x9 | x9 | x9 | x9 | x9 |[K:treble] x9 | x9 | x9 | x9 | x9 | x9 | x9 | %16
 x9 | x6[K:bass] x3 | x9 | x9 | x9 | x9 | x9 | x9 | x9 | x9 | x9 | x6 [^A,,C,] z z | x9 | x9 | x9 | %31
 x9 | x9 | x9 | x9 | x9 | x9 | x9 | x9 |[K:treble] x3 G,3 =G,3 |[K:bass] x9 | x9 | %42
[K:treble] B,6- B,3 | B,6- B,3 | x9 | [^A,-C]6 A,3 | B,6 ^A,3 | =A,3 x3 B,3 | x9 | [^A,-C]6 A,3 | %50
 x6[K:bass] x3 | x9 | x9 | x9 | x9 |[K:treble] x9 |[K:bass] x9 | x9 | x9 |[K:treble] x9 | x9 | %61
 G,6- G,3 |[K:bass] x9 | x9 |[K:treble] x9 | x9 |[K:bass] x9 |[K:treble] x9 | x9 | x6[K:bass] x3 | %70
 x9/2[K:treble] x3/2[K:bass] x3 | x9 | x9 | x9 | x9 | x9 | x9 |[K:treble] x9 | x9 | x9 | x9 | %81
[K:bass] x9 | x9 | x9 | x9 | x9 | x9 | x9 | x9 | x9 | x9 |[K:treble] x9 | x9 | G,/8 x/8 x/4 x/ x8 | %94
 x9 | x9 | x9 | x9 | x9 |[K:bass] x9 | x9 | x3[K:treble] x6 | x9 | x9 | x9 | x9 | x9 |[K:bass] x9 | %108
 x9 | x9 | x9 | x9 | x9 | x13/2[K:treble] x5/2 | x9 | x9 | x9 | %117
 x3 [^A,C][A,C][A,C] [A,=C][A,C][A,C] | B,B,B, B,B,B, x3 | x9 | x9 | x9 | x9 | D6- D3 | x9 | x9 | %126
 x9 | D6- D3 |[K:bass] x9 | x9 | x9 | x9 | %132
 G,/E,/G,/E,/G,/E,/ B,/G,/B,/G,/B,/G,/ B,/G,/B,/G,/B,/G,/ | %133
[K:treble] !//-!=D3 B,3 !//-!D3/2 B,3/2 | %134
 A,/F,/A,/F,/A,/F,/ C/A,/C/"_cresc."A,/C/A,/ C/A,/C/A,/C/A,/ | %135
 !//-!D3 A,3[K:bass] A,/F,/A,/F,/A,/F,/ | x3[K:treble] x6 | !arpeggio![EGB]6 x3 | %138
 x6[K:bass] G,F,E, | E,6 x3 | E,6 x3 | E,6 x3 | x9 | x9 | x9 | x9 | x3[K:treble] x3[K:bass] x3 | %147
 x3[K:treble] x3[K:bass] x3 | x9 | x9 | x9 | x9 | x9 | x9 | x9 | x9 | x9 | x9 | x9 | x9 | x9 | x9 | %162
 x9 |] %163

